X: 61
T:Ikariotikos
O:Greece
M:4/4
L:1/8
Q:1/4=180
K:Cm
"Cm"C2 GG "Gm"G2 G2| "Bb"FGFE "Gm"D2 G2|\
"Cm"C2 GG "Gm"G2 G2| "Bb"FGFE "Gm"D2 G2|
"Cm"C2 GG "Gm"G2 G2| "Bb"FGFE "Gm"D2 G2|\
"Cm"C2 GG "Gm"G2 G2| "Bb"FGFE "Gm"D2 G2|
"Gm"B,2 CD "Cm"EDEF|"Gm"D3E "Cm"DE C2|\
"Gm"B,2 CD "Cm"EDEF|"Gm"D3E "Cm"DE C2|
"Gm"B,2 CD "Cm"EDEF|"Gm"D3E "Cm"DE C2|\
"Gm"B,2 CD "Cm"EDEF|"Gm"D3E "Cm"DE C2|
